optimized/24/outline/personal-work.svg

<svg viewBox="0 0 24 24" xmlns="http://www.w3.org/2000/svg" fill="currentColor" data-slot="icon">
  <g clip-path="url(#clip0_2629_42575)">
    <path d="M13.25 14C13.25 13.5858 13.5858 13.25 14 13.25H17C17.4142 13.25 17.75 13.5858 17.75 14C17.75 14.4142 17.4142 14.75 17 14.75H14C13.5858 14.75 13.25 14.4142 13.25 14Z"/>
    <path d="M12 16.25C11.5858 16.25 11.25 16.5858 11.25 17C11.25 17.4142 11.5858 17.75 12 17.75H17C17.4142 17.75 17.75 17.4142 17.75 17C17.75 16.5858 17.4142 16.25 17 16.25H12Z"/>
    <path fill-rule="evenodd" clip-rule="evenodd" d="M18 3C19.6569 3 21 4.34315 21 6V18C21 19.6569 19.6569 21 18 21H6C4.34315 21 3 19.6569 3 18V6C3 4.34315 4.34315 3 6 3H18ZM12 4.5H18C18.8284 4.5 19.5 5.17157 19.5 6V18C19.5 18.8284 18.8284 19.5 18 19.5H6C5.17157 19.5 4.5 18.8284 4.5 18V6C4.5 5.17157 5.17157 4.5 6 4.5V9.19098C6 9.56267 6.39116 9.80442 6.72361 9.6382L8.55279 8.72361C8.83431 8.58284 9.16569 8.58284 9.44721 8.72361L11.2764 9.6382C11.6088 9.80442 12 9.56267 12 9.19098V4.5ZM10.5 4.5H7.5V7.57295L7.88197 7.38197C8.58579 7.03006 9.41422 7.03006 10.118 7.38196L10.5 7.57295V4.5Z"/>
  </g>
  <defs>
    <clipPath id="clip0_2629_42575">
      <rect width="24" height="24"/>
    </clipPath>
  </defs>
</svg>

<svg xmlns="http://www.w3.org/2000/svg" viewBox="0 0 24 24" fill="currentColor" data-slot="icon">
  <g clip-path="url(#a)">
    <path d="M13.25 14a.75.75 0 0 1 .75-.75h3a.75.75 0 0 1 0 1.5h-3a.75.75 0 0 1-.75-.75Z"/>
    <path d="M12 16.25a.75.75 0 0 0 0 1.5h5a.75.75 0 0 0 0-1.5h-5Z"/>
    <path fill-rule="evenodd" d="M18 3a3 3 0 0 1 3 3v12a3 3 0 0 1-3 3H6a3 3 0 0 1-3-3V6a3 3 0 0 1 3-3h12Zm-6 1.5h6A1.5 1.5 0 0 1 19.5 6v12a1.5 1.5 0 0 1-1.5 1.5H6A1.5 1.5 0 0 1 4.5 18V6A1.5 1.5 0 0 1 6 4.5v4.691a.5.5 0 0 0 .724.447l1.829-.914a1 1 0 0 1 .894 0l1.83.914A.5.5 0 0 0 12 9.191V4.5Zm-1.5 0h-3v3.073l.382-.191a2.5 2.5 0 0 1 2.236 0l.382.19V4.5Z" clip-rule="evenodd"/>
  </g>
  <defs>
    <clipPath id="a">
      <rect width="24" height="24"/>
    </clipPath>
  </defs>
</svg>
